!!!OTL: Gerstebinden Es war eins Bauren Toechterlein,
!!!ARE: Europa, Mitteleuropa, Deutschland
!!!YOR: 6, S. 202
!!    1534 gedruckt in Nuernberg; Satz: Ludwig Senfl
!!!SCT: Q0135
!!!YEM: Copyright 1995, estate of Helmut Schaffrath.
**kern
*ICvox
*Ivox
*M2/2
*k[f#]
*G:
{4g
4g
4g
=1
4g
4g
4a
4a
=2
2a}
{2ee
=3
4.ffn
8ee
2dd
=4
2cc
2dd
=5
2.r}
{4dd
=6
2ee
4ee
[4ee
=7
4ee]
4ee
2ffn
=8
1ee}
=9
{2dd
4cc
4a
=10
4.b
8cc
2dd
=11
2r}
{2dd
=12
4cc
4a
4.b
8cc
=13
2dd
2r
=14
2r}
{4dd
4dd
=15
4cc
4b
2g
=16
2.r}
{4g
=17
4.a
8b
4cc
[4dd
=18
4dd]
4ee
4dd
[4cc
=19
4cc]
4b
2a
=20
2g}
{4a
[4fn
=21
4fn]
4g
2dd
=22
1g}
==
!!!AGN: Ballade, Beischlaf, Leiden
!! Bass - Stimme in einem fuenfstimmigen Satz (cf.) von Ludwig Senfl.
!!    Satzbedingte ganztaktige Pausen Weggelassen, Schlussnote gekuerzt.
!!    Grundton in der grossen Oktave.
!!!ONB: ESAC (Essen Associative Code) Database: BALLADE
!!!AMT: simple duple
!!!AIN: vox
!!!EED: Helmut Schaffrath
!!!EEV: 1.0
*-
